Costumes/penguin2.svg

<?xml version="1.0" encoding="UTF-8" standalone="no"?>
<svg
   version="1.1"
   width="98.152893"
   height="157.23973"
   viewBox="3 -2 98.152893 157.23973"
   id="svg21"
   sodipodi:docname="penguin2.svg"
   xmlns:inkscape="http://www.inkscape.org/namespaces/inkscape"
   xmlns:sodipodi="http://sodipodi.sourceforge.net/DTD/sodipodi-0.dtd"
   xmlns="http://www.w3.org/2000/svg"
   xmlns:svg="http://www.w3.org/2000/svg">
  <defs
     id="defs25" />
  <sodipodi:namedview
     id="namedview23"
     pagecolor="#ffffff"
     bordercolor="#000000"
     borderopacity="0.25"
     inkscape:showpageshadow="2"
     inkscape:pageopacity="0.0"
     inkscape:pagecheckerboard="0"
     inkscape:deskcolor="#d1d1d1" />
  <!-- Exported by Scratch - http://scratch.mit.edu/ -->
  <g
     id="ID0.9505157433450222"
     transform="matrix(0.73509192,0,0,0.73509192,0.76521337,-0.88119009)">
    <path
       id="R_Foot"
       fill="#f7941e"
       stroke="#000000"
       stroke-width="3"
       stroke-linejoin="round"
       d="m 86.474,191.076 c 0.666,7.667 0.781,14.659 8.947,17.659 2.5,1 6.74,3.332 10.24,1.336 4.014,-2.29 0.645,-6.995 -1.189,-9.662 2.166,2.834 7.166,5.334 10.832,4.334 5,-1.667 2.334,-9.334 -1.832,-10.334 2.332,0.167 6,2 7.5,-0.833 2.666,-5.167 -10,-6.833 -13,-8 -1.895,-0.677 -3.645,-1.331 -5.063,-2.231 0,-0.001 -0.003,-0.001 -0.003,-0.001 -0.432,-0.204 -0.809,-0.503 -1.145,-0.854 -1.359,-1.207 -2.213,-2.841 -2.273,-5.291 -0.219,-1.128 -0.272,-1.954 -0.272,-1.954 l -12.336,7.009 c -0.334,3.326 -0.74,5.492 -0.406,8.822 z" />
    <path
       id="L_Foot"
       fill="#f7941e"
       stroke="#000000"
       stroke-width="3"
       stroke-linejoin="round"
       d="m 42.169,177.966 c -0.012,0.129 -0.025,0.266 -0.043,0.41 0.801,4.645 -3.211,6.396 -7.082,7.2 -2.5,0.5 -18.75,3.64 -14.25,8.806 1.668,2 5.584,1.027 7.584,0.527 -2.668,2 -7.5,8.667 -1.5,9.5 3.832,0.667 8,-2.333 11,-4.166 -1.668,2 -4.793,7.169 -2.459,9.669 2.5,2.666 8.293,-1.003 10.793,-2.669 6.166,-3.667 7.408,-21.848 6.74,-24.514 l -0.021,-0.013 c 0.822,0.254 -10.762,-4.75 -10.762,-4.75 z" />
    <g
       id="R_Wing">
      <path
         id="ID0.6222410774789751"
         fill="#0062a2"
         d="m 124.407,139.238 c -2.588,0 -6.341,-2.473 -7.893,-4.245 l -0.067,-0.076 -0.076,-0.066 c -8.025,-6.996 -4.257,-17.826 -3.42,-19.926 l 0.061,-0.147 c 0.795,-1.476 3.108,-6.239 2.335,-10.411 -0.839,-4.543 -9.227,-8.547 -11.878,-9.707 -8.246,-14.476 -5.044,-21.687 -3.714,-23.721 12.295,2.91 28.078,10.79 33.433,23.875 2.088,4.747 4.243,13.454 -4.609,18.842 -6.561,3.828 -9.239,8.836 -7.144,13.384 0.519,1.125 1.424,2.345 2.383,3.636 1.867,2.515 3.983,5.364 2.985,7.166 -0.535,0.966 -1.274,1.396 -2.396,1.396 z" />
      <path
         id="ID0.614870726596564"
         d="m 100.546,72.679 c 11.76,3.027 26.275,10.538 31.254,22.702 l 0.015,0.036 0.016,0.036 c 2.288,5.201 3.447,12.354 -4.01,16.907 -7.193,4.207 -10.162,10.07 -7.748,15.307 0.584,1.267 1.534,2.547 2.541,3.902 1.105,1.489 3.407,4.588 2.877,5.545 -0.268,0.484 -0.511,0.624 -1.083,0.624 -2.102,0 -5.463,-2.247 -6.765,-3.733 l -0.133,-0.151 -0.152,-0.134 c -7.263,-6.331 -3.784,-16.305 -3.013,-18.24 l 0.031,-0.073 c 0.896,-1.683 3.293,-6.741 2.446,-11.311 C 115.903,99.124 108.098,95.091 104.53,93.49 98.011,81.824 99.388,75.289 100.546,72.679 m -1.388,-3.415 c 0,0 -7.678,7.706 3.259,26.577 0,0 10.658,4.485 11.455,8.799 0.711,3.836 -1.68,8.505 -2.217,9.491 0,0 -0.029,0.068 -0.078,0.189 -0.018,0.007 -0.031,0.008 -0.031,0.008 0,0 0.004,0.015 0.012,0.041 -0.721,1.809 -5.065,13.859 3.828,21.612 1.606,1.835 5.709,4.757 9.021,4.757 1.5,0 2.838,-0.6 3.708,-2.171 2.1,-3.791 -3.816,-8.896 -5.318,-12.156 -2.209,-4.792 2.562,-9.141 6.562,-11.475 7.666,-4.666 8.884,-12.358 5.218,-20.691 -5.56,-13.584 -21.683,-21.964 -35.419,-24.981 z" />
    </g>
    <g
       id="L_Wing">
      <path
         id="ID0.2179628792218864"
         fill="#0062a2"
         d="m 12.965,136.615 c -1.295,0 -2.099,-0.485 -2.605,-1.572 -0.869,-1.867 1.441,-4.562 3.479,-6.939 1.047,-1.221 2.036,-2.374 2.632,-3.461 2.41,-4.389 0.088,-9.572 -6.212,-13.866 C 1.829,104.798 4.588,96.263 6.985,91.709 13.258,79.003 29.542,72.247 42.009,70.202 c 1.151,2.149 3.791,9.68 -5.349,23.4 -2.726,0.971 -11.374,4.378 -12.529,8.853 -1.062,4.104 0.912,9.02 1.602,10.547 l 0.049,0.152 c 0.688,2.152 3.691,13.218 -4.807,19.636 l -0.081,0.062 -0.072,0.071 c -1.52,1.509 -5.193,3.692 -7.857,3.692 z" />
      <path
         id="ID0.5727051049470901"
         d="m 41.152,71.873 c 0.983,2.62 1.943,9.177 -5.468,20.486 -3.671,1.347 -11.741,4.824 -13.005,9.719 -1.167,4.509 0.882,9.74 1.654,11.469 l 0.021,0.063 c 0.634,1.984 3.408,12.175 -4.282,17.983 l -0.162,0.122 -0.144,0.143 c -1.338,1.328 -4.653,3.257 -6.801,3.257 -0.853,0 -1.047,-0.279 -1.245,-0.706 -0.461,-0.99 2.051,-3.921 3.258,-5.329 1.099,-1.282 2.137,-2.493 2.808,-3.715 2.775,-5.055 0.224,-11.111 -6.657,-15.812 C 4.009,104.488 5.667,97.434 8.313,92.407 L 8.331,92.372 8.348,92.337 C 14.172,80.54 29.204,74.062 41.152,71.873 m 1.586,-3.303 c -13.913,2.048 -30.583,9.278 -37.08,22.439 -4.24,8.056 -3.564,15.814 3.756,21.006 3.827,2.608 8.281,7.281 5.742,11.905 -1.727,3.147 -7.985,7.826 -6.156,11.755 0.828,1.778 2.293,2.439 3.965,2.439 3.24,0 7.256,-2.481 8.915,-4.128 9.415,-7.11 5.924,-19.436 5.332,-21.29 0.01,-0.027 0.015,-0.04 0.015,-0.04 0,0 -0.013,-0.004 -0.03,-0.011 -0.041,-0.124 -0.065,-0.194 -0.065,-0.194 -0.467,-1.021 -2.524,-5.846 -1.547,-9.623 1.097,-4.248 12.043,-7.976 12.043,-7.976 12.23,-18.058 5.11,-26.282 5.11,-26.282 z" />
    </g>
    <g
       id="Body_1_">
      <g
         id="Body">
        <path
           id="ID0.8879663362167776"
           fill="#0062a2"
           d="m 68.623,185.949 c -13.967,0 -23.898,-5.32 -28.575,-8.491 l 0.05,-0.074 c -3.316,-2.129 -13.373,-13.973 -15.885,-21.338 -2.205,-6.617 -2.979,-14.726 -2.241,-23.457 0.03,-0.524 0.833,-13.819 3.866,-19.019 0.272,-0.498 5.834,-11.542 9.503,-18.839 l 0.063,-0.125 0.086,-0.113 C 35.594,94.357 45.837,80.794 42.623,70.337 33.173,56.558 30.675,42.421 34.987,27.129 40.776,7.086 56.977,-0.022 69.092,-0.022 c 0.781,0 1.568,0.028 2.341,0.084 0.772,-0.056 1.56,-0.084 2.341,-0.084 12.117,0 28.318,7.108 34.103,27.142 4.373,15.499 1.995,29.157 -7.48,42.992 l -0.077,0.114 -0.098,0.097 c -0.056,0.059 -6.631,7.295 3.494,24.766 0.325,0.621 7.25,13.895 9.218,18.668 2.471,5.992 3.155,16.636 3.447,21.182 0.051,0.792 0.082,1.332 0.11,1.528 l 0.02,0.184 c 0.321,7.244 -0.466,13.767 -2.339,19.388 -2.817,8.249 -8.217,18.318 -12.679,20.751 -11.151,6.078 -22.209,9.16 -32.868,9.16 0,-10e-4 -0.001,-10e-4 -0.002,-10e-4 z" />
        <path
           id="ID0.68726069573313"
           d="m 73.773,1.478 c 13.032,0 27.496,8.168 32.661,26.058 4.812,17.052 0.526,30.336 -7.276,41.728 0,0 -7.678,7.706 3.259,26.577 0,0 7.164,13.722 9.129,18.487 2.891,7.011 3.288,21.401 3.466,22.389 0.294,6.641 -0.36,13.135 -2.264,18.847 -3.106,9.094 -8.386,17.952 -11.974,19.908 -12.282,6.695 -23.102,8.978 -32.151,8.978 -13.581,0 -23.176,-5.143 -27.733,-8.232 0,0 -10e-4,0.001 -0.002,0.001 -0.217,0 -12.115,-11.452 -15.255,-20.656 -2.277,-6.834 -2.844,-14.822 -2.166,-22.847 0,0 0.781,-13.44 3.667,-18.389 0.234,-0.4 9.547,-18.921 9.547,-18.921 0,0 11.005,-14.358 7.305,-25.734 C 36.087,58.233 31.593,44.696 36.431,27.537 41.599,9.645 56.06,1.478 69.092,1.478 c 0.786,0 1.567,0.03 2.341,0.089 0.774,-0.059 1.553,-0.089 2.34,-0.089 m 0,-3 c -0.781,0 -1.567,0.027 -2.341,0.081 -0.773,-0.054 -1.56,-0.081 -2.341,-0.081 -12.635,0 -29.525,7.392 -35.543,28.226 -4.425,15.693 -1.904,30.179 7.704,44.286 2.78,9.68 -6.855,22.463 -6.954,22.593 l -0.17,0.222 -0.127,0.252 c -3.592,7.143 -9.043,17.968 -9.483,18.799 -3.11,5.393 -3.948,18.018 -4.044,19.645 -0.749,8.918 0.05,17.22 2.312,24.009 1.442,4.229 4.562,9.191 9.279,14.769 1.883,2.226 3.566,4.006 4.648,5.107 1.252,1.275 1.991,2.028 2.67,2.434 4.89,3.28 15.046,8.63 29.24,8.63 10.913,0 22.213,-3.144 33.587,-9.344 4.847,-2.642 10.398,-12.853 13.377,-21.572 1.938,-5.816 2.751,-12.521 2.422,-19.949 l -0.009,-0.202 -0.025,-0.139 c -0.021,-0.202 -0.06,-0.812 -0.098,-1.402 -0.297,-4.619 -0.992,-15.437 -3.558,-21.657 -1.993,-4.835 -8.948,-18.167 -9.243,-18.732 l -0.03,-0.059 -0.033,-0.057 C 95.868,78.558 100.925,71.831 101.311,71.358 l 0.23,-0.21 0.093,-0.187 C 111.246,56.926 113.761,42.456 109.322,26.723 103.303,5.87 86.411,-1.522 73.773,-1.522 Z" />
      </g>
      <path
         id="Belly"
         fill="#ffffff"
         d="m 100.383,166.64 c 4.832,-8.076 6.313,-17.396 6.313,-32.562 0,-17.5 -18.37,-39.5 -18.37,-50.5 0,-11 13.807,-24 13.807,-44.5 0,-20.531 -6.875,-27.889 -14.26,-27.517 -7.181,0.362 -14.849,8.184 -17.146,8.184 -2.39,0 -10.17,-8.253 -17.179,-8 -6.645,0.24 -12.592,8.395 -12.592,28.833 0,21.141 12.591,31 12.16,43 -0.431,12 -20.568,33.5 -21.068,50 -0.5,16.5 3,25.5 8.908,35 2.521,4.052 1.7,6.344 -0.067,7.64 7.595,5.149 29.738,16.435 59.885,-0.745 -1.898,-1.697 -3.017,-4.458 -0.391,-8.833 z" />
    </g>
    <g
       id="Beak_1_">
      <path
         id="Beak"
         fill="#f7941e"
         stroke="#000000"
         stroke-width="3"
         d="m 71.444,67.576 c -5.231,0 -19.065,-8 -19.065,-22.167 0,-6.5 15.025,-13.944 18.347,-13.944 3.32,0 19.821,4.192 19.821,15.652 0,11.46 -12.704,20.459 -19.103,20.459 z" />
      <path
         id="Smile"
         fill="#231f20"
         d="m 55.546,50.264 c 0.988,1.302 10.564,12.771 16.291,12.771 5.727,0 12.436,-9.822 14.211,-13.697 0.721,-1.574 -1.889,-3.081 -2.641,-1.643 -1.736,3.319 -6.125,12.735 -11.361,12.735 -5.234,0 -11.531,-9.468 -14.488,-12.042 -1.039,-0.903 -2.998,0.574 -2.012,1.876 z" />
    </g>
    <path
       id="R_Eye"
       fill="#231f20"
       d="m 88.324,21.8 c 1.046,0 1.995,0.542 2.681,1.416 0.687,0.875 1.112,2.084 1.112,3.417 0,1.333 -0.425,2.542 -1.112,3.417 -0.686,0.874 -1.635,1.416 -2.681,1.416 -1.046,0 -1.995,-0.542 -2.681,-1.416 -0.687,-0.875 -1.112,-2.084 -1.112,-3.417 0,-1.333 0.425,-2.542 1.112,-3.417 0.686,-0.874 1.635,-1.416 2.681,-1.416 z" />
    <path
       id="L_Eye"
       fill="#231f20"
       d="m 53.765,21.8 c 1.046,0 1.995,0.542 2.681,1.416 0.687,0.875 1.112,2.084 1.112,3.417 0,1.333 -0.425,2.542 -1.112,3.417 -0.686,0.874 -1.635,1.416 -2.681,1.416 -1.046,0 -1.995,-0.542 -2.681,-1.416 -0.687,-0.875 -1.112,-2.084 -1.112,-3.417 0,-1.333 0.425,-2.542 1.112,-3.417 0.686,-0.874 1.635,-1.416 2.681,-1.416 z" />
  </g>
</svg>

<svg version="1.1" width="137" height="213" viewBox="3 -2 137 213" xmlns="http://www.w3.org/2000/svg" xmlns:xlink="http://www.w3.org/1999/xlink">
  <!-- Exported by Scratch - http://scratch.mit.edu/ -->
  <g id="ID0.9505157433450222" transform="matrix(0.7350919246673584, 0, 0, 0.7350919246673584, -1.5, 1.8)">
    <path id="R_Foot" fill="#F7941E" stroke="#000000" stroke-width="3" stroke-linejoin="round" d="M 86.474 191.076 C 87.140 198.743 87.255 205.735 95.421 208.735 C 97.921 209.735 102.161 212.067 105.661 210.071 C 109.675 207.781 106.306 203.076 104.472 200.409 C 106.638 203.243 111.638 205.743 115.304 204.743 C 120.304 203.076 117.638 195.409 113.472 194.409 C 115.804 194.576 119.472 196.409 120.972 193.576 C 123.638 188.409 110.972 186.743 107.972 185.576 C 106.077 184.899 104.327 184.245 102.909 183.345 C 102.909 183.344 102.906 183.344 102.906 183.344 C 102.474 183.140 102.097 182.841 101.761 182.490 C 100.402 181.283 99.548 179.649 99.488 177.199 C 99.269 176.071 99.216 175.245 99.216 175.245 L 86.880 182.254 C 86.546 185.580 86.140 187.746 86.474 191.076 Z "/>
    <path id="L_Foot" fill="#F7941E" stroke="#000000" stroke-width="3" stroke-linejoin="round" d="M 42.169 177.966 C 42.157 178.095 42.144 178.232 42.126 178.376 C 42.927 183.021 38.915 184.772 35.044 185.576 C 32.544 186.076 16.294 189.216 20.794 194.382 C 22.462 196.382 26.378 195.409 28.378 194.909 C 25.710 196.909 20.878 203.576 26.878 204.409 C 30.710 205.076 34.878 202.076 37.878 200.243 C 36.210 202.243 33.085 207.412 35.419 209.912 C 37.919 212.578 43.712 208.909 46.212 207.243 C 52.378 203.576 53.620 185.395 52.952 182.729 L 52.931 182.716 C 53.753 182.970 42.169 177.966 42.169 177.966 Z "/>
    <g id="R_Wing">
      <path id="ID0.6222410774789751" fill="#0062A2" d="M 124.407 139.238 C 121.819 139.238 118.066 136.765 116.514 134.993 L 116.447 134.917 L 116.371 134.851 C 108.346 127.855 112.114 117.025 112.951 114.925 L 113.012 114.778 C 113.807 113.302 116.120 108.539 115.347 104.367 C 114.508 99.824 106.120 95.820 103.469 94.660 C 95.223 80.184 98.425 72.973 99.755 70.939 C 112.050 73.849 127.833 81.729 133.188 94.814 C 135.276 99.561 137.431 108.268 128.579 113.656 C 122.018 117.484 119.340 122.492 121.435 127.040 C 121.954 128.165 122.859 129.385 123.818 130.676 C 125.685 133.191 127.801 136.040 126.803 137.842 C 126.268 138.808 125.529 139.238 124.407 139.238 L 124.407 139.238 Z "/>
      <path id="ID0.614870726596564" d="M 100.546 72.679 C 112.306 75.706 126.821 83.217 131.800 95.381 L 131.815 95.417 L 131.831 95.453 C 134.119 100.654 135.278 107.807 127.821 112.360 C 120.628 116.567 117.659 122.430 120.073 127.667 C 120.657 128.934 121.607 130.214 122.614 131.569 C 123.719 133.058 126.021 136.157 125.491 137.114 C 125.223 137.598 124.980 137.738 124.408 137.738 C 122.306 137.738 118.945 135.491 117.643 134.005 L 117.510 133.854 L 117.358 133.720 C 110.095 127.389 113.574 117.415 114.345 115.480 L 114.376 115.407 C 115.272 113.724 117.669 108.666 116.822 104.096 C 115.903 99.124 108.098 95.091 104.530 93.490 C 98.011 81.824 99.388 75.289 100.546 72.679 M 99.158 69.264 C 99.158 69.264 91.480 76.970 102.417 95.841 C 102.417 95.841 113.075 100.326 113.872 104.640 C 114.583 108.476 112.192 113.145 111.655 114.131 C 111.655 114.131 111.626 114.199 111.577 114.320 C 111.559 114.327 111.546 114.328 111.546 114.328 C 111.546 114.328 111.550 114.343 111.558 114.369 C 110.837 116.178 106.493 128.228 115.386 135.981 C 116.992 137.816 121.095 140.738 124.407 140.738 C 125.907 140.738 127.245 140.138 128.115 138.567 C 130.215 134.776 124.299 129.671 122.797 126.411 C 120.588 121.619 125.359 117.270 129.359 114.936 C 137.025 110.270 138.243 102.578 134.577 94.245 C 129.017 80.661 112.894 72.281 99.158 69.264 L 99.158 69.264 Z "/>
    </g>
    <g id="L_Wing">
      <path id="ID0.2179628792218864" fill="#0062A2" d="M 12.965 136.615 C 11.670 136.615 10.866 136.130 10.360 135.043 C 9.491 133.176 11.801 130.481 13.839 128.104 C 14.886 126.883 15.875 125.730 16.471 124.643 C 18.881 120.254 16.559 115.071 10.259 110.777 C 1.829 104.798 4.588 96.263 6.985 91.709 C 13.258 79.003 29.542 72.247 42.009 70.202 C 43.160 72.351 45.800 79.882 36.660 93.602 C 33.934 94.573 25.286 97.980 24.131 102.455 C 23.069 106.559 25.043 111.475 25.733 113.002 L 25.782 113.154 C 26.470 115.306 29.473 126.372 20.975 132.790 L 20.894 132.852 L 20.822 132.923 C 19.302 134.432 15.629 136.615 12.965 136.615 L 12.965 136.615 Z "/>
      <path id="ID0.5727051049470901" d="M 41.152 71.873 C 42.135 74.493 43.095 81.050 35.684 92.359 C 32.013 93.706 23.943 97.183 22.679 102.078 C 21.512 106.587 23.561 111.818 24.333 113.547 L 24.354 113.610 C 24.988 115.594 27.762 125.785 20.072 131.593 L 19.910 131.715 L 19.766 131.858 C 18.428 133.186 15.113 135.115 12.965 135.115 C 12.112 135.115 11.918 134.836 11.720 134.409 C 11.259 133.419 13.771 130.488 14.978 129.080 C 16.077 127.798 17.115 126.587 17.786 125.365 C 20.561 120.310 18.010 114.254 11.129 109.553 C 4.009 104.488 5.667 97.434 8.313 92.407 L 8.331 92.372 L 8.348 92.337 C 14.172 80.540 29.204 74.062 41.152 71.873 M 42.738 68.570 C 28.825 70.618 12.155 77.848 5.658 91.009 C 1.418 99.065 2.094 106.823 9.414 112.015 C 13.241 114.623 17.695 119.296 15.156 123.920 C 13.429 127.067 7.171 131.746 9.000 135.675 C 9.828 137.453 11.293 138.114 12.965 138.114 C 16.205 138.114 20.221 135.633 21.880 133.986 C 31.295 126.876 27.804 114.550 27.212 112.696 C 27.222 112.669 27.227 112.656 27.227 112.656 C 27.227 112.656 27.214 112.652 27.197 112.645 C 27.156 112.521 27.132 112.451 27.132 112.451 C 26.665 111.430 24.608 106.605 25.585 102.828 C 26.682 98.580 37.628 94.852 37.628 94.852 C 49.858 76.794 42.738 68.570 42.738 68.570 L 42.738 68.570 Z "/>
    </g>
    <g id="Body_1_">
      <g id="Body">
        <path id="ID0.8879663362167776" fill="#0062A2" d="M 68.623 185.949 C 54.656 185.949 44.725 180.629 40.048 177.458 L 40.098 177.384 C 36.782 175.255 26.725 163.411 24.213 156.046 C 22.008 149.429 21.234 141.320 21.972 132.589 C 22.002 132.065 22.805 118.770 25.838 113.570 C 26.110 113.072 31.672 102.028 35.341 94.731 L 35.404 94.606 L 35.490 94.493 C 35.594 94.357 45.837 80.794 42.623 70.337 C 33.173 56.558 30.675 42.421 34.987 27.129 C 40.776 7.086 56.977 -0.022 69.092 -0.022 C 69.873 -0.022 70.660 0.006 71.433 0.062 C 72.205 0.006 72.993 -0.022 73.774 -0.022 C 85.891 -0.022 102.092 7.086 107.877 27.120 C 112.250 42.619 109.872 56.277 100.397 70.112 L 100.320 70.226 L 100.222 70.323 C 100.166 70.382 93.591 77.618 103.716 95.089 C 104.041 95.710 110.966 108.984 112.934 113.757 C 115.405 119.749 116.089 130.393 116.381 134.939 C 116.432 135.731 116.463 136.271 116.491 136.467 L 116.511 136.651 C 116.832 143.895 116.045 150.418 114.172 156.039 C 111.355 164.288 105.955 174.357 101.493 176.790 C 90.342 182.868 79.284 185.950 68.625 185.950 C 68.625 185.949 68.624 185.949 68.623 185.949 Z "/>
        <path id="ID0.68726069573313" d="M 73.773 1.478 C 86.805 1.478 101.269 9.646 106.434 27.536 C 111.246 44.588 106.960 57.872 99.158 69.264 C 99.158 69.264 91.480 76.970 102.417 95.841 C 102.417 95.841 109.581 109.563 111.546 114.328 C 114.437 121.339 114.834 135.729 115.012 136.717 C 115.306 143.358 114.652 149.852 112.748 155.564 C 109.642 164.658 104.362 173.516 100.774 175.472 C 88.492 182.167 77.672 184.450 68.623 184.450 C 55.042 184.450 45.447 179.307 40.890 176.218 C 40.890 176.218 40.889 176.219 40.888 176.219 C 40.671 176.219 28.773 164.767 25.633 155.563 C 23.356 148.729 22.789 140.741 23.467 132.716 C 23.467 132.716 24.248 119.276 27.134 114.327 C 27.368 113.927 36.681 95.406 36.681 95.406 C 36.681 95.406 47.686 81.048 43.986 69.672 C 36.087 58.233 31.593 44.696 36.431 27.537 C 41.599 9.645 56.060 1.478 69.092 1.478 C 69.878 1.478 70.659 1.508 71.433 1.567 C 72.207 1.508 72.986 1.478 73.773 1.478 M 73.773 -1.522 C 72.992 -1.522 72.206 -1.495 71.432 -1.441 C 70.659 -1.495 69.872 -1.522 69.091 -1.522 C 56.456 -1.522 39.566 5.870 33.548 26.704 C 29.123 42.397 31.644 56.883 41.252 70.990 C 44.032 80.670 34.397 93.453 34.298 93.583 L 34.128 93.805 L 34.001 94.057 C 30.409 101.200 24.958 112.025 24.518 112.856 C 21.408 118.249 20.570 130.874 20.474 132.501 C 19.725 141.419 20.524 149.721 22.786 156.510 C 24.228 160.739 27.348 165.701 32.065 171.279 C 33.948 173.505 35.631 175.285 36.713 176.386 C 37.965 177.661 38.704 178.414 39.383 178.820 C 44.273 182.100 54.429 187.450 68.623 187.450 C 79.536 187.450 90.836 184.306 102.210 178.106 C 107.057 175.464 112.608 165.253 115.587 156.534 C 117.525 150.718 118.338 144.013 118.009 136.585 L 118 136.383 L 117.975 136.244 C 117.954 136.042 117.915 135.432 117.877 134.842 C 117.580 130.223 116.885 119.405 114.319 113.185 C 112.326 108.350 105.371 95.018 105.076 94.453 L 105.046 94.394 L 105.013 94.337 C 95.868 78.558 100.925 71.831 101.311 71.358 L 101.541 71.148 L 101.634 70.961 C 111.246 56.926 113.761 42.456 109.322 26.723 C 103.303 5.870 86.411 -1.522 73.773 -1.522 L 73.773 -1.522 Z "/>
      </g>
      <path id="Belly" fill="#FFFFFF" d="M 100.383 166.640 C 105.215 158.564 106.696 149.244 106.696 134.078 C 106.696 116.578 88.326 94.578 88.326 83.578 C 88.326 72.578 102.133 59.578 102.133 39.078 C 102.133 18.547 95.258 11.189 87.873 11.561 C 80.692 11.923 73.024 19.745 70.727 19.745 C 68.337 19.745 60.557 11.492 53.548 11.745 C 46.903 11.985 40.956 20.140 40.956 40.578 C 40.956 61.719 53.547 71.578 53.116 83.578 C 52.685 95.578 32.548 117.078 32.048 133.578 C 31.548 150.078 35.048 159.078 40.956 168.578 C 43.477 172.630 42.656 174.922 40.889 176.218 C 48.484 181.367 70.627 192.653 100.774 175.473 C 98.876 173.776 97.757 171.015 100.383 166.640 Z "/>
    </g>
    <g id="Beak_1_">
      <path id="Beak" fill="#F7941E" stroke="#000000" stroke-width="3" d="M 71.444 67.576 C 66.213 67.576 52.379 59.576 52.379 45.409 C 52.379 38.909 67.404 31.465 70.726 31.465 C 74.046 31.465 90.547 35.657 90.547 47.117 C 90.547 58.577 77.843 67.576 71.444 67.576 Z "/>
      <path id="Smile" fill="#231F20" d="M 55.546 50.264 C 56.534 51.566 66.110 63.035 71.837 63.035 C 77.564 63.035 84.273 53.213 86.048 49.338 C 86.769 47.764 84.159 46.257 83.407 47.695 C 81.671 51.014 77.282 60.430 72.046 60.430 C 66.812 60.430 60.515 50.962 57.558 48.388 C 56.519 47.485 54.560 48.962 55.546 50.264 Z "/>
    </g>
    <path id="R_Eye" fill="#231F20" d="M 88.324 21.800 C 89.370 21.800 90.319 22.342 91.005 23.216 C 91.692 24.091 92.117 25.300 92.117 26.633 C 92.117 27.966 91.692 29.175 91.005 30.050 C 90.319 30.924 89.370 31.466 88.324 31.466 C 87.278 31.466 86.329 30.924 85.643 30.050 C 84.956 29.175 84.531 27.966 84.531 26.633 C 84.531 25.300 84.956 24.091 85.643 23.216 C 86.329 22.342 87.278 21.800 88.324 21.800 Z "/>
    <path id="L_Eye" fill="#231F20" d="M 53.765 21.800 C 54.811 21.800 55.760 22.342 56.446 23.216 C 57.133 24.091 57.558 25.300 57.558 26.633 C 57.558 27.966 57.133 29.175 56.446 30.050 C 55.760 30.924 54.811 31.466 53.765 31.466 C 52.719 31.466 51.770 30.924 51.084 30.050 C 50.397 29.175 49.972 27.966 49.972 26.633 C 49.972 25.300 50.397 24.091 51.084 23.216 C 51.770 22.342 52.719 21.800 53.765 21.800 Z "/>
  </g>
</svg>
